img/logo.svg

<svg width="298" height="28" xmlns="http://www.w3.org/2000/svg">
 <defs>
  <clipPath id="clip0_2012_2">
   <rect id="svg_1" fill="white" height="28" width="316"/>
  </clipPath>
 </defs>
 <g>
  <title>background</title>
  <rect fill="none" id="canvas_background" height="30" width="300" y="-1" x="-1"/>
 </g>
 <g>
  <title>Layer 1</title>
  <g stroke="null" id="svg_2" clip-path="url(#clip0_2012_2)">
   <path stroke="null" id="svg_3" fill="white" d="m78.4685,0.38618l0,24.62072l20.5835,0l15.172,-24.52417c0.483,-0.3862 3.285,0 4.059,-0.09655l7.054,11.39312c2.223,0.0965 4.445,0.1931 6.571,0.5793l-0.773,2.4138c-1.353,-0.1931 -2.802,-0.4828 -4.155,-0.2897l8.214,13.4207l-3.189,0c-0.29,-0.1931 -0.483,-0.5793 -0.677,-0.8689c-2.512,-3.669 -4.638,-7.8207 -7.151,-11.5862c-0.193,-0.2897 -0.483,-0.9656 -0.773,-0.9656c-6.281,0.6759 -12.273,2.8 -17.298,6.5656c-0.676,0.5793 -2.029,1.5448 -2.512,2.2206c-0.58,0.6759 -2.513,4.3449 -2.899,4.4414c-1.2565,0.1931 -2.6094,-0.0965 -3.769,-0.0965c-7.1511,-0.0966 -14.3988,0 -21.5499,0.0965l0,-27.32412l3.0924,0zm38.2675,2.99311l-0.676,0l-8.601,13.90341l3.093,-1.7379c3.575,-1.7379 7.537,-2.8965 11.499,-3.2828l-5.315,-8.88271z"/>
   <path stroke="null" id="svg_4" fill="white" d="m222.456,27.8069l3.576,-27.5172l2.706,0.09656l13.529,22.78624l0.386,0.3862l13.239,-23.17245l2.899,-0.09655l3.479,27.5172l-2.802,0l-2.899,-21.82065l-0.387,0.19311l-12.562,21.24134l-2.223,0.0966l-12.949,-21.14484l-0.387,-0.28965l-2.899,21.82069l-2.706,0l0,-0.0966z"/>
   <path stroke="null" id="svg_5" fill="white" d="m191.146,0.38623l0,2.70345l-22.516,0l-0.193,0.1931l0,7.72412l22.709,0l0,2.7035l-22.516,0l-0.193,0.1931l0,11.1034l22.709,0l0,2.8966l-25.608,0l-0.194,-0.1931l0,-27.32417l25.802,0z"/>
   <path stroke="null" id="svg_6" fill="white" d="m293.774,0.38623l0,2.70345l-22.71,0l0,7.91722l22.71,0l0,2.7035l-22.71,0l0,11.2965l22.71,0l0,2.8966l-25.802,0l0,-27.51727l25.802,0z"/>
   <path stroke="null" id="svg_7" fill="white" d="m25.8018,0.38623l0,2.70345l-22.61281,0l0,7.91722l22.70951,0l0,2.7035l-22.70951,0l0,11.2965l22.70951,0l0,2.7035l-0.1933,0.1931l-25.7052,0l0,-27.51727l25.8018,0z"/>
   <path stroke="null" id="svg_8" fill="white" d="m34.209,18.1517l0,9.4621l-0.1933,0.1931l-2.8024,0l0,-24.91039c5.2183,-3.18621 12.7559,-3.57241 18.6507,-2.12414c4.7352,1.15862 9.6636,4.15173 9.0838,9.65513c-0.4832,5.5035 -8.1174,8.4 -13.0459,8.6897c-3.8654,0.1931 -8.1174,0 -11.6929,-0.9655zm0,-2.9931c1.3529,0.3862 2.7058,0.6758 4.0587,0.8689c4.6385,0.4828 14.6887,0.5794 17.2979,-4.3448c2.4159,-4.63446 -3.3823,-7.33791 -6.9578,-8.11033c-4.4453,-0.96551 -10.1468,-0.67586 -14.3988,1.15862l0,10.42761z"/>
   <path stroke="null" id="svg_9" fill="white" d="m160.513,0.38623l0,2.70345l-13.24,0l0,24.62072l-0.193,0.1931l-2.899,0l-0.193,-0.1931l0,-24.62072l-13.239,0l0,-2.70345l29.764,0z"/>
   <path stroke="null" id="svg_10" fill="white" d="m67.1619,0.38623l0,27.32417l-0.1933,0.1931l-2.8991,0l0,-27.51727l3.0924,0z"/>
   <path stroke="null" id="svg_11" fill="white" d="m212.889,12.5517l0,2.7035l-8.31,0l-0.194,-0.1931l0,-2.5104l8.504,0z"/>
  </g>
 </g>
</svg>

<svg width="316" height="28" viewBox="0 0 316 28" fill="none" xmlns="http://www.w3.org/2000/svg">
<g clip-path="url(#clip0_1_515)">
<path d="M78.4685 0.386183V25.0069H99.052L114.224 0.482734C114.707 0.0965274 117.509 0.482734 118.283 0.386183L125.337 11.7793C127.56 11.8758 129.782 11.9724 131.908 12.3586L131.135 14.7724C129.782 14.5793 128.333 14.2896 126.98 14.4827L135.194 27.9034H132.005C131.715 27.7103 131.522 27.3241 131.328 27.0345C128.816 23.3655 126.69 19.2138 124.177 15.4483C123.984 15.1586 123.694 14.4827 123.404 14.4827C117.123 15.1586 111.132 17.2827 106.106 21.0483C105.43 21.6276 104.077 22.5931 103.594 23.2689C103.014 23.9448 101.081 27.6138 100.695 27.7103C99.4385 27.9034 98.0856 27.6138 96.926 27.6138C89.7749 27.5172 82.5272 27.6138 75.3761 27.7103V0.386183H78.4685ZM116.736 3.37929H116.06L107.459 17.2827L110.552 15.5448C114.127 13.8069 118.089 12.6483 122.051 12.262L116.736 3.37929Z" fill="white"/>
<path d="M222.456 27.8069L226.032 0.289703L228.738 0.386255L242.267 23.1725L242.653 23.5587L255.892 0.386255L258.791 0.289703L262.27 27.8069H259.468L256.569 5.98626L256.182 6.17936L243.62 27.4207L241.397 27.5173L228.448 6.37246L228.061 6.08281L225.162 27.9035H222.456V27.8069Z" fill="white"/>
<path d="M191.146 0.38623V3.08968H168.63L168.437 3.28278V11.0069H191.146V13.7104H168.63L168.437 13.9035V25.0069H191.146V27.9035H165.538L165.344 27.7104V0.38623H191.146Z" fill="white"/>
<path d="M293.774 0.38623V3.08968H271.064V11.0069H293.774V13.7104H271.064V25.0069H293.774V27.9035H267.972V0.38623H293.774Z" fill="white"/>
<path d="M25.8018 0.38623V3.08968H3.18899V11.0069H25.8985V13.7104H3.18899V25.0069H25.8985V27.7104L25.7052 27.9035H0V0.38623H25.8018Z" fill="white"/>
<path d="M34.209 18.1517V27.6138L34.0157 27.8069H31.2133V2.89651C36.4316 -0.289695 43.9692 -0.675902 49.864 0.772374C54.5992 1.93099 59.5276 4.9241 58.9478 10.4275C58.4646 15.931 50.8304 18.8275 45.9019 19.1172C42.0365 19.3103 37.7845 19.1172 34.209 18.1517ZM34.209 15.1586C35.5619 15.5448 36.9148 15.8344 38.2677 16.0275C42.9062 16.5103 52.9564 16.6069 55.5656 11.6827C57.9815 7.04824 52.1833 4.34479 48.6078 3.57237C44.1625 2.60686 38.461 2.89651 34.209 4.73099V15.1586Z" fill="white"/>
<path d="M160.513 0.38623V3.08968H147.273V27.7104L147.08 27.9035H144.181L143.988 27.7104V3.08968H130.749V0.38623H160.513Z" fill="white"/>
<path d="M67.1619 0.38623V27.7104L66.9686 27.9035H64.0695V0.38623H67.1619Z" fill="white"/>
<path d="M212.889 12.5517V15.2552H204.579L204.385 15.0621V12.5517H212.889Z" fill="white"/>
</g>
<defs>
<clipPath id="clip0_1_515">
<rect width="316" height="28" fill="white"/>
</clipPath>
</defs>
</svg>
